X:33
T:Delgaty Castle
S:Petrie's Collection of Strathspey Reels and Country Dances &c., 1790
Z:Steve Wyrick <sjwyrick'at'gmail'dot'com>, 3/19/04
N:Petrie's First Collection, page 15
L:1/8
M:2/4
R:Reel?
K:A
"^Allegro"
  c/d/|ecA>c   |B/A/G/F/ EA/=G/  |       FB/A/   Gc/B/    |        Ad/c/    TcB    |
       ecAc    |B/A/G/F/ EA/=G/  |       FB      G/E/d/B/ |        c/B/A/G/ [CEA] :|
"^Pia."
|:c/d/|eecA    |ff{e}d{c}B       |       eecA             |"^ For."aG/A/B/G/  E2   |
       eecA    |f>gad            |       cBAG             |        AA[CEA]        :|
K:Am
"^Minore Pia."
|:E   |AAAB    |cccd             |"^For."e/f/e/d/ c/d/c/B/|        AEA,E           |
"^Pia."
       AAAB    |cccd             |       eefd             |"^For."[^G2B2e2] [^GBe]:|
|:e   |ee eg/e/|fdD2             |       dd      df/d/    |        ec        Cc/d/ |
"^Pia."
       eeef    |dfed             |"^For."cBA^G            |        AA       [CEA] :|
